X:1
T:[ID 2v-3 (=2-141)]
T:[ID 2v-3 (=2-141)]
T:Bezeichnung standardisiert: Presto Presto 2do
T:Urheber unbekannt Datum in der hier transkribierten schriftlichen Quelle: 1767
C:Urheber unbekannt
C:Datum in der hier transkribierten schriftlichen Quelle: 1767
L:1/8
M:2/4
K:G
V:1 treble 
V:1
 e b2 a | g d2 c | B B2 A | G G2 F | GA/B/ cB | BBcA | A>G A2 | z ABA | z G>FG | z GFE | FAdf | %11
 G2 E2 | FAdf | G2 E2 | Fa f2 | Fa d2 | df A2 | fF A/G/F/E/ | F2 z2 :: f f2 e | d A2 G | F F2 E | %22
 D d2 ^c | d2 z2 | d2 z2 | z fgf | e>d e2 | z efe | d f2 e | A G2 F | G e2 d | G F2 E | F f2 e | %33
 d A2 G | F F2 A | GF/G/ A/B/c/A/ | BBcB | A>G G2 | z BAG | z AGF | z BAG | z AGF | GBcB/A/ | %43
 Bd B2 | Bd G2 | GB D2 | B2 cB/A/ | Bd B2 | Bd G2 | GB D2 | B2 cB/A/ | B2 d/c/B/A/ | G4 :| %53

